www/assets/icons/u_turn_left.svg

<svg xmlns="http://www.w3.org/2000/svg" width="24" height="24" viewBox="0 0 24 24" fill='currentColor'><path d="M19.5 9v12h-2V9c0-2.21-1.79-4-4-4s-4 1.79-4 4v4.17l1.59-1.59L12.5 13l-4 4-4-4 1.41-1.41 1.59 1.58V9c0-3.31 2.69-6 6-6s6 2.69 6 6"/></svg>

<svg width="24" height="24" viewBox="0 0 24 24" xmlns="http://www.w3.org/2000/svg" fill='currentColor'><path d="M19.5 9V21H17.5V9C17.5 6.79 15.71 5 13.5 5C11.29 5 9.5 6.79 9.5 9V13.17L11.09 11.58L12.5 13L8.5 17L4.5 13L5.91 11.59L7.5 13.17V9C7.5 5.69 10.19 3 13.5 3C16.81 3 19.5 5.69 19.5 9Z"/></svg>
